X: 267
M: 6/4
L: 1/4
K: Gm
d |\
g2d gba | g3 b3 | fdB dfb | c3 B3 |\
|: f |\
bfd Bdf | bfd c2B | aec Ace | aec B2A |\

